!!!OTL: ES IST NIT ALLES GOLDE
!!!ARE: Europa, Mitteleuropa, Deutschland
!!!SCT: E0472
!!!YEM: Copyright 1995, estate of Helmut Schaffrath.
**kern
*ICvox
*Ivox
*M3/4
*k[b-]
*F:
{4f
=1
2f
4f
=2
2f
4f
=3
2.c
=4
2c}
{4c
=5
2d
4d
=6
2e
4e
=7
[2.f
=8
2f]}
{4f
=9
2f
4f
=10
2f
4f
=11
2.c
=12
2c}
{4c
=13
2d
4d
=14
2e
4e
=15
[2.f
=16
2f]
4r}
=17
{4a
4a
4a
=18
2a
4b-
=19
2.cc
=20
2a}
{4a
=21
2cc
4cc
=22
2b-
4b-
=23
[2.a
=24
2a]}
{4a
=25
2dd
4dd
=26
2dd
4dd
=27
2cc
4cc
=28
2.a}
=29
{2cc
4cc
=30
2b-
4b-
=31
2a
4a
=32
2a
4r}
=33
{4.a
8g
4f
=34
2e}
{4f
=35
4.g
8f
4e
=36
2d
4e
=37
[2.f
=38
2f]}
==
!!!AGN: Liebes - Lied
!!!ONB: ESAC (Essen Associative Code) Database: ERK1
!!!AMT: simple triple
!!!AIN: vox
!!!EED: Helmut Schaffrath
!!!EEV: 1.0
*-
